build/assets/images/svg/food/6-bakaleya.svg

<svg width="28" height="28" viewBox="0 0 28 28" fill="none" xmlns="http://www.w3.org/2000/svg">
<path d="M19.6024 16.7979H23.3375C23.5941 16.7979 23.8031 17.0068 23.8031 17.2633C23.8031 17.5198 23.5941 17.7287 23.3375 17.7287H19.6024C19.3459 17.7287 19.1369 17.5198 19.1369 17.2633C19.1332 17.0068 19.3422 16.7979 19.6024 16.7979Z" fill="#203686"/>
<path d="M14.4672 16.7979H17.7331C17.9897 16.7979 18.1986 17.0068 18.1986 17.2633C18.1986 17.5198 17.9897 17.7287 17.7331 17.7287H14.4672C14.2106 17.7287 14.0017 17.5198 14.0017 17.2633C14.0017 17.0068 14.2106 16.7979 14.4672 16.7979Z" fill="#203686"/>
<path d="M18.6677 14.9324H21.0026C21.2592 14.9324 21.4682 15.1413 21.4682 15.3978C21.4682 15.6543 21.2592 15.8632 21.0026 15.8632H18.6677C18.4112 15.8632 18.2022 15.6543 18.2022 15.3978C18.2022 15.1413 18.4112 14.9324 18.6677 14.9324Z" fill="#203686"/>
<path d="M16.3328 14.9324H16.7983C17.0548 14.9324 17.2638 15.1413 17.2638 15.3978C17.2638 15.6543 17.0548 15.8632 16.7983 15.8632H16.3328C16.0762 15.8632 15.8672 15.6543 15.8672 15.3978C15.8672 15.1413 16.0762 14.9324 16.3328 14.9324Z" fill="#203686"/>
<path d="M16.8021 18.6628H20.5372C20.7938 18.6628 21.0027 18.8717 21.0027 19.1282C21.0027 19.3847 20.7938 19.5936 20.5372 19.5936H16.8021C16.5455 19.5936 16.3366 19.3847 16.3366 19.1282C16.3329 18.8717 16.5418 18.6628 16.8021 18.6628Z" fill="#203686"/>
<path d="M4.66569 25.1966H5.13121C5.38779 25.1966 5.59671 25.4055 5.59671 25.662C5.59671 25.9185 5.38779 26.1274 5.13121 26.1274H4.66569C4.40911 26.1274 4.20017 25.9185 4.20017 25.662C4.20017 25.4055 4.40911 25.1966 4.66569 25.1966Z" fill="#203686"/>
<path d="M7.00051 24.2621H7.46603C7.72261 24.2621 7.93155 24.471 7.93155 24.7275C7.93155 24.984 7.72261 25.1929 7.46603 25.1929H7.00051C6.74392 25.1929 6.53499 24.984 6.53499 24.7275C6.53499 24.471 6.74392 24.2621 7.00051 24.2621Z" fill="#203686"/>
<path d="M7.00051 21.9317H7.46603C7.72261 21.9317 7.93155 22.1406 7.93155 22.3971C7.93155 22.6536 7.72261 22.8625 7.46603 22.8625H7.00051C6.74392 22.8625 6.53499 22.6536 6.53499 22.3971C6.53499 22.1406 6.74392 21.9317 7.00051 21.9317Z" fill="#203686"/>
<path d="M12.1359 25.1966H12.6014C12.858 25.1966 13.0669 25.4055 13.0669 25.662C13.0669 25.9185 12.858 26.1274 12.6014 26.1274H12.1359C11.8793 26.1274 11.6704 25.9185 11.6704 25.662C11.6667 25.4055 11.8756 25.1966 12.1359 25.1966Z" fill="#203686"/>
<path d="M11.6667 21.9317H12.1359C12.3924 21.9317 12.6014 22.1406 12.6014 22.3971C12.6014 22.6536 12.3924 22.8625 12.1359 22.8625H11.6703C11.4137 22.8625 11.2048 22.6536 11.2048 22.3971C11.2012 22.1406 11.4101 21.9317 11.6667 21.9317Z" fill="#203686"/>
<path d="M9.80102 19.5973H10.2665C10.5231 19.5973 10.732 19.8061 10.732 20.0627C10.732 20.3192 10.5231 20.528 10.2665 20.528H9.80102C9.54444 20.528 9.3355 20.3192 9.3355 20.0627C9.3355 19.8061 9.54444 19.5973 9.80102 19.5973Z" fill="#203686"/>
<path d="M14.0017 23.7966H14.4672C14.7238 23.7966 14.9327 24.0054 14.9327 24.262C14.9327 24.5185 14.7238 24.7273 14.4672 24.7273H14.0017C13.7451 24.7273 13.5362 24.5185 13.5362 24.262C13.5362 24.0054 13.7451 23.7966 14.0017 23.7966Z" fill="#203686"/>
<path d="M26.1563 0.329803C25.9913 0.12093 25.7384 0 25.4745 0H12.0149C11.6557 0 11.3148 0.164902 11.0912 0.4434L9.55173 2.36723C9.41244 2.53946 9.33546 2.75566 9.33546 2.97919V17.3108C8.77831 17.4171 8.27615 17.7066 7.90594 18.139L0.113167 27.2268C-0.0554442 27.421 -0.0334461 27.7178 0.164489 27.8864C0.248794 27.9597 0.355077 28 0.468706 28H25.4745C25.7237 28 25.962 27.9011 26.1379 27.7252L27.7581 26.1055C27.912 25.9516 28 25.739 28 25.5192V2.96087C28 2.75566 27.9303 2.55778 27.8021 2.39655L26.1563 0.329803ZM12.2825 0.934434H25.1703C25.3425 0.934434 25.5075 1.01139 25.6138 1.14697L26.915 2.77032C27.014 2.89491 27.069 3.04881 27.069 3.20639V7.92985H22.8427C22.5861 5.62492 20.5078 3.96493 18.2022 4.22144C16.2522 4.43764 14.7127 5.9767 14.4928 7.92619H10.2665V3.18807C10.2665 3.03783 10.3178 2.89491 10.4094 2.77765L11.6447 1.23125C11.8023 1.04803 12.0369 0.934434 12.2825 0.934434ZM11.696 18.1353C11.3258 17.7066 10.8236 17.4134 10.2665 17.3072V8.86428H14.4928C14.7493 11.1692 16.8277 12.8292 19.1332 12.569C21.0833 12.3528 22.6228 10.8138 22.8427 8.86062H27.069V23.3242H16.1496L11.696 18.1353ZM19.6024 10.4217L20.6287 9.05484C20.7827 8.84963 20.7424 8.55647 20.5371 8.40257C20.3318 8.24866 20.0386 8.28897 19.8847 8.49418L19.5548 8.93391C19.5108 8.65541 19.4338 8.38424 19.3312 8.12406L19.8113 7.16032C19.925 6.92946 19.8333 6.65096 19.6024 6.5337C19.3715 6.4201 19.0929 6.51171 18.9756 6.74257L18.7667 7.16032C18.5248 6.85984 18.2425 6.59599 17.9236 6.37979C17.6927 6.22222 17.3775 6.3175 17.2529 6.56301C17.1466 6.77189 17.2162 7.02473 17.4105 7.15665C17.6561 7.32522 17.876 7.53043 18.0592 7.76495L17.3702 7.59272C17.1209 7.53043 16.868 7.68067 16.8057 7.93352C16.7434 8.1827 16.8936 8.43554 17.1466 8.49784L18.5614 8.84963C18.5724 8.85329 18.5798 8.85329 18.5907 8.85695C18.6457 9.08415 18.6751 9.31868 18.6751 9.5532V9.6668L17.8393 9.45793C17.5901 9.39563 17.3372 9.54587 17.2749 9.79872C17.2125 10.0479 17.3628 10.3007 17.6157 10.363L18.6751 10.6269V11.6639C16.8387 11.6639 15.3578 10.1542 15.4055 8.30729C15.4531 6.60332 16.8717 5.18152 18.5798 5.13022C20.4272 5.07892 21.941 6.55935 21.9447 8.39524C21.9447 9.83902 20.9953 11.1143 19.6098 11.5283L19.6024 10.4217ZM1.48038 27.0619L8.61704 18.7363C8.80398 18.5164 9.0459 18.3369 9.32447 18.2562C9.9586 18.0694 10.6 18.2966 10.9849 18.7436L18.1179 27.0619H1.48038ZM25.2289 27.0619H19.3495L16.9486 24.2623H27.069V25.1784C27.069 25.3653 26.9956 25.5448 26.8637 25.6731L25.6504 26.886C25.5368 26.9996 25.3865 27.0619 25.2289 27.0619Z" fill="#203686"/>
</svg>

<svg width="28" height="28" fill="none" xmlns="http://www.w3.org/2000/svg"><path d="M19.602 16.798h3.735a.466.466 0 010 .93h-3.735a.466.466 0 010-.93zm-5.135 0h3.266a.466.466 0 010 .93h-3.266a.466.466 0 010-.93zm4.201-1.866h2.335a.466.466 0 010 .931h-2.335a.466.466 0 010-.93zm-2.335 0h.465a.466.466 0 010 .931h-.465a.466.466 0 010-.93zm.469 3.731h3.735a.466.466 0 010 .93h-3.735a.466.466 0 010-.93zM4.666 25.197h.465a.466.466 0 010 .93h-.465a.466.466 0 010-.93zM7 24.262h.466a.466.466 0 010 .93h-.465a.466.466 0 010-.93zm0-2.33h.466a.466.466 0 010 .93h-.465a.466.466 0 010-.93zm5.136 3.265h.465a.466.466 0 010 .93h-.465a.466.466 0 010-.93zm-.469-3.265h.469a.466.466 0 010 .93h-.466a.466.466 0 01-.003-.93zm-1.866-2.335h.466a.466.466 0 010 .931H9.8a.466.466 0 010-.93zm4.201 4.2h.465a.466.466 0 010 .93h-.465a.466.466 0 010-.93z" fill="#203686"/><path d="M26.156.33a.87.87 0 00-.681-.33h-13.46c-.36 0-.7.165-.924.443l-1.54 1.924a.974.974 0 00-.216.612v14.332a2.491 2.491 0 00-1.43.828L.114 27.227a.466.466 0 00.051.66A.46.46 0 00.47 28h25.005c.25 0 .488-.099.664-.275l1.62-1.62A.832.832 0 0028 25.52V2.961a.905.905 0 00-.198-.564L26.156.33zM12.283.934H25.17c.172 0 .337.077.444.213l1.301 1.623a.703.703 0 01.154.436V7.93h-4.226a4.2 4.2 0 00-8.35-.004h-4.226V3.188c0-.15.05-.293.142-.41l1.236-1.547a.85.85 0 01.638-.297zm-.587 17.201a2.51 2.51 0 00-1.43-.828V8.864h4.227a4.195 4.195 0 004.64 3.705 4.2 4.2 0 003.71-3.708h4.226v14.463h-10.92l-4.453-5.189zm7.906-7.713l1.027-1.367a.467.467 0 00-.744-.56l-.33.439a3.846 3.846 0 00-.224-.81l.48-.964a.469.469 0 00-.209-.626.47.47 0 00-.626.209l-.21.417a3.876 3.876 0 00-.842-.78.465.465 0 00-.514.777c.246.168.466.373.65.608l-.69-.172a.464.464 0 00-.564.34.464.464 0 00.34.565l1.415.352c.011.003.019.003.03.007.055.227.084.462.084.696v.114l-.836-.21a.464.464 0 00-.564.342.464.464 0 00.34.564l1.06.264v1.037a3.269 3.269 0 01-3.27-3.357c.048-1.704 1.467-3.125 3.175-3.177a3.272 3.272 0 013.365 3.265c0 1.444-.95 2.72-2.335 3.133l-.008-1.106zM1.48 27.062l7.137-8.326c.187-.22.429-.4.707-.48a1.598 1.598 0 011.66.488l7.134 8.318H1.48zm23.749 0h-5.88l-2.4-2.8h10.12v.916a.69.69 0 01-.205.495l-1.214 1.213a.594.594 0 01-.421.176z" fill="#203686"/></svg>
